svgs/1F48D.svg

<svg xmlns="http://www.w3.org/2000/svg" xmlns:xlink="http://www.w3.org/1999/xlink" preserveAspectRatio="none" viewBox="0 0 72 72"><defs><path id="b" fill="#E0E0E0" d="M16.9 49.5Q4.15 62.3 4.15 80.3q0 18.05 12.75 30.8 12.75 12.7 30.8 12.7 18 0 30.8-12.7 12.75-12.75 12.75-30.8 0-18-12.75-30.8-12.8-12.75-30.8-12.75-18.05 0-30.8 12.75m-5.05 30.8q0-14.85 10.5-25.3 10.5-10.5 25.35-10.5Q62.55 44.5 73 55q10.5 10.45 10.5 25.3 0 14.85-10.5 25.35-10.45 10.5-25.3 10.5-14.85 0-25.35-10.5-10.5-10.5-10.5-25.35z"/><path id="c" fill="#E1F5FE" d="M91.75 13.3l.75-11.5-17.45 3.6 16.7 7.9z"/><path id="d" fill="#81D4FA" d="M82.9 29.35l8.85-16.05-16.7-7.9 7.85 23.95z"/><path id="e" fill="#64B5F6" d="M100.8 27.25L91.75 13.3 82.9 29.35l17.9-2.1z"/><path id="f" fill="#0288D1" d="M114.7 36.25l7.9 16.7 3.6-17.45-11.5.75z"/><path id="g" fill="#81D4FA" d="M114.7 36.25L98.65 45.1l23.95 7.85-7.9-16.7z"/><path id="h" fill="#E1F5FE" d="M114.7 36.25l-13.9-9-2.15 17.85 16.05-8.85z"/><path id="i" fill="#B2EBF2" d="M98.65 45.1l2.15-17.85-17.9 2.1L98.65 45.1z"/><path id="j" fill="#B3E5FC" d="M126.2 35.5l-4.05-13.05-16.6-16.6L92.5 1.8l-.75 11.5 9.05 13.95 13.9 9 11.5-.75z"/><path id="k" fill="#1E88E5" d="M75.05 5.4l.25 47.3 7.6-23.35L75.05 5.4z"/><path id="l" fill="#B3E5FC" d="M122.6 52.95L98.65 45.1 75.3 52.7l47.3.25z"/><path id="m" fill="#E1F5FE" d="M98.65 45.1L82.9 29.35 75.3 52.7l23.35-7.6z"/><path id="n" fill="#BDBDBD" d="M14.5 51.9Q1.8 64.65 1.8 82.7q0 18 12.7 30.8 12.75 12.7 30.8 12.7t30.8-12.7q12.75-12.75 12.75-30.8T76.1 51.9Q63.35 39.15 45.3 39.15T14.5 51.9m-5 30.8q0-14.85 10.5-25.35 10.45-10.5 25.3-10.5 14.85 0 25.35 10.5 10.5 10.5 10.5 25.35 0 14.85-10.5 25.35-10.5 10.45-25.35 10.45-14.85 0-25.3-10.5Q9.5 97.55 9.5 82.7z"/><path id="o" fill="#BDBDBD" d="M96.45 53.6q.35-.45.4-.8l-20.6-1.05-1.05 1.05 3.7 4.25 6.6-.85q6.9-.9 8.5-1.3 1.7-.4 2.45-1.3z"/><path id="p" fill="#BDBDBD" d="M73.1 34q-.6 2.6-2.15 15.05l4.25 3.75 1.05-1.05-1.05-20.6q-.35.05-.8.4-.9.75-1.3 2.45z"/><path id="a" fill="none" stroke="#FFF" stroke-linecap="round" stroke-linejoin="round" stroke-width="2.5" d="M18.636 41.344q-1.14 2.715-1.408 5.664-.251 2.932.386 5.78m5.06-17.426q-1.324 1.324-2.33 2.832"/></defs><use transform="matrix(1 0 0 1 .003 .025)" xlink:href="#a"/><use transform="rotate(-45 40.187 26.404) scale(.47392)" xlink:href="#b"/><use transform="rotate(-45 40.187 26.404) scale(.47392)" xlink:href="#c"/><use transform="rotate(-45 40.187 26.404) scale(.47392)" xlink:href="#d"/><use transform="rotate(-45 40.187 26.404) scale(.47392)" xlink:href="#e"/><use transform="rotate(-45 40.187 26.404) scale(.47392)" xlink:href="#f"/><use transform="rotate(-45 40.187 26.404) scale(.47392)" xlink:href="#g"/><use transform="rotate(-45 40.187 26.404) scale(.47392)" xlink:href="#h"/><use transform="rotate(-45 40.187 26.404) scale(.47392)" xlink:href="#i"/><use transform="rotate(-45 40.187 26.404) scale(.47392)" xlink:href="#j"/><use transform="rotate(-45 40.187 26.404) scale(.47392)" xlink:href="#k"/><use transform="rotate(-45 40.187 26.404) scale(.47392)" xlink:href="#l"/><use transform="rotate(-45 40.187 26.404) scale(.47392)" xlink:href="#m"/><use transform="rotate(-45 40.187 26.404) scale(.47392)" xlink:href="#n"/><use transform="rotate(-45 40.187 26.404) scale(.47392)" xlink:href="#o"/><use transform="rotate(-45 40.187 26.404) scale(.47392)" xlink:href="#p"/></svg>

<svg xmlns="http://www.w3.org/2000/svg" version="1.1" xmlns:xlink="http://www.w3.org/1999/xlink" preserveAspectRatio="none" x="0px" y="0px" width="72px" height="72px" viewBox="0 0 72 72">
<defs>
<g id="Layer0_0_MEMBER_1_FILL">
<path fill="#E0E0E0" stroke="none" d="
M 16.9 49.5
Q 4.15 62.3 4.15 80.3 4.15 98.35 16.9 111.1 29.65 123.8 47.7 123.8 65.7 123.8 78.5 111.1 91.25 98.35 91.25 80.3 91.25 62.3 78.5 49.5 65.7 36.75 47.7 36.75 29.65 36.75 16.9 49.5
M 11.85 80.3
Q 11.85 65.45 22.35 55 32.85 44.5 47.7 44.5 62.55 44.5 73 55 83.5 65.45 83.5 80.3 83.5 95.15 73 105.65 62.55 116.15 47.7 116.15 32.85 116.15 22.35 105.65 11.85 95.15 11.85 80.3 Z"/>
</g>

<g id="Layer0_0_MEMBER_2_MEMBER_0_FILL">
<path fill="#E1F5FE" stroke="none" d="
M 91.75 13.3
L 92.5 1.8 75.05 5.4 91.75 13.3 Z"/>
</g>

<g id="Layer0_0_MEMBER_2_MEMBER_1_FILL">
<path fill="#81D4FA" stroke="none" d="
M 82.9 29.35
L 91.75 13.3 75.05 5.4 82.9 29.35 Z"/>
</g>

<g id="Layer0_0_MEMBER_2_MEMBER_2_FILL">
<path fill="#64B5F6" stroke="none" d="
M 100.8 27.25
L 91.75 13.3 82.9 29.35 100.8 27.25 Z"/>
</g>

<g id="Layer0_0_MEMBER_2_MEMBER_3_FILL">
<path fill="#0288D1" stroke="none" d="
M 114.7 36.25
L 122.6 52.95 126.2 35.5 114.7 36.25 Z"/>
</g>

<g id="Layer0_0_MEMBER_2_MEMBER_4_FILL">
<path fill="#81D4FA" stroke="none" d="
M 114.7 36.25
L 98.65 45.1 122.6 52.95 114.7 36.25 Z"/>
</g>

<g id="Layer0_0_MEMBER_2_MEMBER_5_FILL">
<path fill="#E1F5FE" stroke="none" d="
M 114.7 36.25
L 100.8 27.25 98.65 45.1 114.7 36.25 Z"/>
</g>

<g id="Layer0_0_MEMBER_2_MEMBER_6_FILL">
<path fill="#B2EBF2" stroke="none" d="
M 98.65 45.1
L 100.8 27.25 82.9 29.35 98.65 45.1 Z"/>
</g>

<g id="Layer0_0_MEMBER_2_MEMBER_7_FILL">
<path fill="#B3E5FC" stroke="none" d="
M 126.2 35.5
L 122.15 22.45 105.55 5.85 92.5 1.8 91.75 13.3 100.8 27.25 114.7 36.25 126.2 35.5 Z"/>
</g>

<g id="Layer0_0_MEMBER_2_MEMBER_8_FILL">
<path fill="#1E88E5" stroke="none" d="
M 75.05 5.4
L 75.3 52.7 82.9 29.35 75.05 5.4 Z"/>
</g>

<g id="Layer0_0_MEMBER_2_MEMBER_9_FILL">
<path fill="#B3E5FC" stroke="none" d="
M 122.6 52.95
L 98.65 45.1 75.3 52.7 122.6 52.95 Z"/>
</g>

<g id="Layer0_0_MEMBER_2_MEMBER_10_FILL">
<path fill="#E1F5FE" stroke="none" d="
M 98.65 45.1
L 82.9 29.35 75.3 52.7 98.65 45.1 Z"/>
</g>

<g id="Layer0_0_MEMBER_3_FILL">
<path fill="#BDBDBD" stroke="none" d="
M 14.5 51.9
Q 1.8 64.65 1.8 82.7 1.8 100.7 14.5 113.5 27.25 126.2 45.3 126.2 63.35 126.2 76.1 113.5 88.85 100.75 88.85 82.7 88.85 64.65 76.1 51.9 63.35 39.15 45.3 39.15 27.25 39.15 14.5 51.9
M 9.5 82.7
Q 9.5 67.85 20 57.35 30.45 46.85 45.3 46.85 60.15 46.85 70.65 57.35 81.15 67.85 81.15 82.7 81.15 97.55 70.65 108.05 60.15 118.5 45.3 118.5 30.45 118.5 20 108 9.5 97.55 9.5 82.7 Z"/>
</g>

<g id="Layer0_0_MEMBER_4_FILL">
<path fill="#BDBDBD" stroke="none" d="
M 96.45 53.6
Q 96.8 53.15 96.85 52.8
L 76.25 51.75 75.2 52.8 78.9 57.05 85.5 56.2
Q 92.4 55.3 94 54.9 95.7 54.5 96.45 53.6 Z"/>
</g>

<g id="Layer0_0_MEMBER_5_FILL">
<path fill="#BDBDBD" stroke="none" d="
M 73.1 34
Q 72.5 36.6 70.95 49.05
L 75.2 52.8 76.25 51.75 75.2 31.15
Q 74.85 31.2 74.4 31.55 73.5 32.3 73.1 34 Z"/>
</g>

<path id="Layer0_0_MEMBER_0_1_STROKES" stroke="#FFFFFF" stroke-width="2.5" stroke-linejoin="round" stroke-linecap="round" fill="none" d="
M 18.635650634765625 41.344259643554686
Q 17.496264648437503 44.05867919921875 17.228173828125 47.00767822265625 16.976838684082033 49.93992156982422 17.613554382324217 52.788386535644534
M 22.673768615722658 35.362483215332034
Q 21.35007019042969 36.686181640624994 20.344729614257815 38.19419250488281"/>
</defs>

<g id="Layer_1">
<g transform="matrix( 0.335113525390625, -0.335113525390625, 0.335113525390625, 0.335113525390625, -6.9,36.15) ">
<use xlink:href="#Layer0_0_MEMBER_0_1_STROKES" transform="matrix( 1.4920196533203125, 1.4920196533203125, -1.4920196533203125, 1.4920196533203125, 64.2,-43.6) "/>
</g>

<g transform="matrix( 0.335113525390625, -0.335113525390625, 0.335113525390625, 0.335113525390625, -6.9,36.15) ">
<use xlink:href="#Layer0_0_MEMBER_1_FILL"/>
</g>

<g transform="matrix( 0.335113525390625, -0.335113525390625, 0.335113525390625, 0.335113525390625, -6.9,36.15) ">
<use xlink:href="#Layer0_0_MEMBER_2_MEMBER_0_FILL"/>
</g>

<g transform="matrix( 0.335113525390625, -0.335113525390625, 0.335113525390625, 0.335113525390625, -6.9,36.15) ">
<use xlink:href="#Layer0_0_MEMBER_2_MEMBER_1_FILL"/>
</g>

<g transform="matrix( 0.335113525390625, -0.335113525390625, 0.335113525390625, 0.335113525390625, -6.9,36.15) ">
<use xlink:href="#Layer0_0_MEMBER_2_MEMBER_2_FILL"/>
</g>

<g transform="matrix( 0.335113525390625, -0.335113525390625, 0.335113525390625, 0.335113525390625, -6.9,36.15) ">
<use xlink:href="#Layer0_0_MEMBER_2_MEMBER_3_FILL"/>
</g>

<g transform="matrix( 0.335113525390625, -0.335113525390625, 0.335113525390625, 0.335113525390625, -6.9,36.15) ">
<use xlink:href="#Layer0_0_MEMBER_2_MEMBER_4_FILL"/>
</g>

<g transform="matrix( 0.335113525390625, -0.335113525390625, 0.335113525390625, 0.335113525390625, -6.9,36.15) ">
<use xlink:href="#Layer0_0_MEMBER_2_MEMBER_5_FILL"/>
</g>

<g transform="matrix( 0.335113525390625, -0.335113525390625, 0.335113525390625, 0.335113525390625, -6.9,36.15) ">
<use xlink:href="#Layer0_0_MEMBER_2_MEMBER_6_FILL"/>
</g>

<g transform="matrix( 0.335113525390625, -0.335113525390625, 0.335113525390625, 0.335113525390625, -6.9,36.15) ">
<use xlink:href="#Layer0_0_MEMBER_2_MEMBER_7_FILL"/>
</g>

<g transform="matrix( 0.335113525390625, -0.335113525390625, 0.335113525390625, 0.335113525390625, -6.9,36.15) ">
<use xlink:href="#Layer0_0_MEMBER_2_MEMBER_8_FILL"/>
</g>

<g transform="matrix( 0.335113525390625, -0.335113525390625, 0.335113525390625, 0.335113525390625, -6.9,36.15) ">
<use xlink:href="#Layer0_0_MEMBER_2_MEMBER_9_FILL"/>
</g>

<g transform="matrix( 0.335113525390625, -0.335113525390625, 0.335113525390625, 0.335113525390625, -6.9,36.15) ">
<use xlink:href="#Layer0_0_MEMBER_2_MEMBER_10_FILL"/>
</g>

<g transform="matrix( 0.335113525390625, -0.335113525390625, 0.335113525390625, 0.335113525390625, -6.9,36.15) ">
<use xlink:href="#Layer0_0_MEMBER_3_FILL"/>
</g>

<g transform="matrix( 0.335113525390625, -0.335113525390625, 0.335113525390625, 0.335113525390625, -6.9,36.15) ">
<use xlink:href="#Layer0_0_MEMBER_4_FILL"/>
</g>

<g transform="matrix( 0.335113525390625, -0.335113525390625, 0.335113525390625, 0.335113525390625, -6.9,36.15) ">
<use xlink:href="#Layer0_0_MEMBER_5_FILL"/>
</g>
</g>
</svg>
